email-off.svg

<svg fill="currentColor" viewBox="0 0 24 24"><path d="M22.1 21.5 2.4 1.7 1.1 3l1.5 1.5Q2 5.1 2 6v12c0 1.1.9 2 2 2h14.1l2.7 2.7zM4 8V6l.3.2 5.3 5.3zm9.4 2.2L7.2 4H20c1.1 0 2 .9 2 2v12c0 .2 0 .5-.1.7l-7.3-7.3L20 8V6z"/></svg>

<svg  viewBox="0 0 24 24" fill="currentColor"><path  d="M22.1 21.5L2.4 1.7L1.1 3L2.6 4.5C2.2 4.9 2 5.4 2 6V18C2 19.1 2.9 20 4 20H18.1L20.8 22.7L22.1 21.5M4 8V6L4.3 6.2L9.6 11.5L4 8M13.4 10.2L7.2 4H20C21.1 4 22 4.9 22 6V18C22 18.2 22 18.5 21.9 18.7L14.6 11.4L20 8V6L13.4 10.2Z"/></svg>
